<?xml version="1.0" encoding="UTF-8"?>
<map version="1.10" tiledversion="1.11.2" orientation="orthogonal" renderorder="right-down" width="70" height="60" tilewidth="16" tileheight="16" infinite="0" nextlayerid="12" nextobjectid="95">
 <editorsettings>
  <export target="../Forest map json.tmj" format="json"/>
 </editorsettings>
 <tileset firstgid="1" source="Ground_grass.tsx"/>
 <tileset firstgid="438" source="Objects.tsx"/>
 <tileset firstgid="1305" source="spots_lianas.tsx"/>
 <tileset firstgid="2019" source="house_details.tsx"/>
 <tileset firstgid="2189" source="Ground_grass2.tsx"/>
 <layer id="1" name="background" width="70" height="60">
  <data encoding="csv">
268,268,268,268,268,268,268,268,268,268,268,268,268,268,268,268,268,268,268,268,268,268,268,268,268,268,268,268,268,268,268,268,268,268,268,268,268,268,268,268,268,268,268,268,268,268,268,268,268,268,268,268,268,268,268,268,268,268,268,268,268,268,268,268,268,268,268,268,268,268,
268,268,268,268,268,268,268,268,268,268,268,268,268,268,268,268,268,268,268,268,268,268,268,268,268,268,268,268,268,268,268,268,268,268,268,268,268,268,268,268,268,268,268,268,268,268,268,268,268,268,268,268,268,268,268,268,268,268,268,268,268,268,268,268,268,268,268,268,268,268,
268,268,268,268,268,268,268,268,268,268,268,268,268,268,268,268,268,268,268,268,268,268,268,268,268,268,268,268,268,268,268,268,268,268,268,268,268,268,268,268,268,268,268,268,268,268,268,268,268,268,268,268,268,268,268,268,268,268,268,268,268,268,268,268,268,268,268,268,268,268,
268,268,268,268,268,268,268,268,268,268,268,268,268,268,268,268,268,268,268,268,268,268,268,268,268,268,268,268,268,268,268,268,268,268,268,268,268,268,268,268,268,268,268,268,268,268,268,268,268,268,268,268,268,268,268,268,268,268,268,268,268,268,268,268,268,268,268,268,268,268,
268,268,268,268,268,268,268,268,268,268,268,268,268,268,268,268,268,268,268,268,268,268,268,268,268,268,268,268,268,268,268,268,268,268,268,268,268,268,268,268,268,268,268,268,268,268,268,268,268,268,268,268,268,268,268,268,268,268,268,268,268,268,268,268,268,268,268,268,268,268,
268,268,268,268,268,268,268,268,268,268,268,268,268,268,268,268,268,268,268,268,268,268,268,268,268,268,268,268,268,268,268,268,268,268,268,268,268,268,268,268,268,268,268,268,268,268,268,268,268,268,268,268,268,268,268,268,268,268,268,268,268,268,268,268,268,268,268,268,268,268,
268,268,268,268,268,268,268,268,268,268,268,268,268,268,268,268,268,268,268,268,268,268,268,268,268,268,268,268,268,268,268,268,268,268,268,268,268,268,268,268,268,268,268,268,268,268,268,268,268,268,268,268,268,268,268,268,268,268,268,268,268,268,268,268,268,268,268,268,268,268,
268,268,268,268,268,268,268,268,268,268,268,268,268,268,268,268,268,268,268,268,268,268,268,268,268,268,268,268,268,268,268,268,268,268,268,268,268,268,268,268,268,268,268,268,268,268,268,268,268,268,268,268,268,268,268,268,268,268,268,268,268,268,268,268,268,268,268,268,268,268,
268,268,268,268,268,268,268,268,268,268,268,268,268,268,268,268,268,268,268,268,268,268,268,268,268,268,268,268,268,268,268,268,268,268,268,268,268,268,268,268,268,268,268,268,268,268,268,268,268,268,268,268,268,268,268,268,268,268,268,268,268,268,268,268,268,268,268,268,268,268,
268,268,268,268,268,268,268,268,268,268,268,268,268,268,268,268,268,268,268,268,268,268,268,268,268,268,268,268,268,268,268,268,268,268,268,268,268,268,268,268,268,268,268,268,268,268,268,268,268,268,268,268,268,268,268,268,268,268,268,268,268,268,268,268,268,268,268,268,268,268,
268,268,268,268,268,268,268,268,268,268,268,268,268,268,268,268,268,268,268,268,268,268,268,268,268,268,268,268,268,268,268,268,268,268,268,268,268,268,268,268,268,268,268,268,268,268,268,268,268,268,268,268,268,268,268,268,268,268,268,268,268,268,268,268,268,268,268,268,268,268,
268,268,268,268,268,268,268,268,268,268,268,268,268,268,268,268,268,268,268,268,268,268,268,268,268,268,268,268,268,268,268,268,268,268,268,268,268,268,268,268,268,268,268,268,268,268,268,268,268,268,268,268,268,268,268,268,268,268,268,268,268,268,268,268,268,268,268,268,268,268,
268,268,268,268,268,268,268,268,268,268,268,268,268,268,268,268,268,268,268,268,268,268,268,268,268,268,268,268,268,268,268,268,268,268,268,268,268,268,268,268,268,268,268,268,268,268,268,268,268,268,268,268,268,268,268,268,268,268,268,268,268,268,268,268,268,268,268,268,268,268,
268,268,268,268,268,268,268,268,268,268,268,268,268,268,268,268,268,268,268,268,268,268,268,268,268,268,268,268,268,268,268,268,268,268,268,268,268,268,268,268,268,268,268,268,268,268,268,268,268,268,268,268,268,268,268,268,268,268,268,268,268,268,268,268,268,268,268,268,268,268,
268,268,268,268,268,268,268,268,268,268,268,268,268,268,268,268,268,268,268,268,268,268,268,268,268,268,268,268,268,268,268,268,268,268,268,268,268,268,268,268,268,268,268,268,268,268,268,268,268,268,268,268,268,268,268,268,268,268,268,268,268,268,268,268,268,268,268,268,268,268,
268,268,268,268,268,268,268,268,268,268,268,268,268,268,268,268,268,268,268,268,268,268,268,268,268,268,268,268,268,268,268,268,268,268,268,268,268,268,268,268,268,268,268,268,268,268,268,268,268,268,268,268,268,268,268,268,268,268,268,268,268,268,268,268,268,268,268,268,268,268,
268,268,268,268,268,268,268,268,268,268,268,268,268,268,268,268,268,268,268,268,268,268,268,268,268,268,268,268,268,268,268,268,268,268,268,268,268,268,268,268,268,268,268,268,268,268,268,268,268,268,268,268,268,268,268,268,268,268,268,268,268,268,268,268,268,268,268,268,268,268,
268,268,268,268,268,268,268,268,268,268,268,268,268,268,268,268,268,268,268,268,268,268,268,268,268,268,268,268,268,268,268,268,268,268,268,268,268,268,268,268,268,268,268,268,268,268,268,268,268,268,268,268,268,268,268,268,268,268,268,268,268,268,268,268,268,268,268,268,268,268,
268,268,268,268,268,268,268,268,268,268,268,268,268,268,268,268,268,268,268,268,268,268,268,268,268,268,268,268,268,268,268,268,268,268,268,268,268,268,268,268,268,268,268,268,268,268,268,268,268,268,268,268,268,268,268,268,268,268,268,268,268,268,268,268,268,268,268,268,268,268,
268,268,268,268,268,268,268,268,268,268,268,268,268,268,268,268,268,268,268,268,268,268,268,268,268,268,268,268,268,268,268,268,268,268,268,268,268,268,268,268,268,268,268,268,268,268,268,268,268,268,268,268,268,268,268,268,268,268,268,268,268,268,268,268,268,268,268,268,268,268,
268,268,268,268,268,268,268,268,268,268,268,268,268,268,268,268,268,268,268,268,268,268,268,268,268,268,268,268,268,268,268,268,268,268,268,268,268,268,268,268,268,268,268,268,268,268,268,268,268,268,268,268,268,268,268,268,268,268,268,268,268,268,268,268,268,268,268,268,268,268,
268,268,268,268,268,268,268,268,268,268,268,268,268,268,268,268,268,268,268,268,268,268,268,268,268,268,268,268,268,268,268,268,268,268,268,268,268,268,268,268,268,268,268,268,268,268,268,268,268,268,268,268,268,268,268,268,268,268,268,268,268,268,268,268,268,268,268,268,268,268,
268,268,268,268,268,268,268,268,268,268,268,268,268,268,268,268,268,268,268,268,268,268,268,268,268,268,268,268,268,268,268,268,268,268,268,268,268,268,268,268,268,268,268,268,268,268,268,268,268,268,268,268,268,268,268,268,268,268,268,268,268,268,268,268,268,268,268,268,268,268,
268,268,268,268,268,268,268,268,268,268,268,268,268,268,268,268,268,268,268,268,268,268,268,268,268,268,268,268,268,268,268,268,268,268,268,268,268,268,268,268,268,268,268,268,268,268,268,268,268,268,268,268,268,268,268,268,268,268,268,268,268,268,268,268,268,268,268,268,268,268,
268,268,268,268,268,268,268,268,268,268,268,268,268,268,268,268,268,268,268,268,268,268,268,268,268,268,268,268,268,268,268,268,268,268,268,268,268,268,268,268,268,268,268,268,268,268,268,268,268,268,268,268,268,268,268,268,268,268,268,268,268,268,268,268,268,268,268,268,268,268,
268,268,268,268,268,268,268,268,268,268,268,268,268,268,268,268,268,268,268,268,268,268,268,268,268,268,268,268,268,268,268,268,268,268,268,268,268,268,268,268,268,268,268,268,268,268,268,268,268,268,268,268,268,268,268,268,268,268,268,268,268,268,268,268,268,268,268,268,268,268,
268,268,268,268,268,268,268,268,268,268,268,268,268,268,268,268,268,268,268,268,268,268,268,268,268,268,268,268,268,268,268,268,268,268,268,268,268,268,268,268,268,268,268,268,268,268,268,268,268,268,268,268,268,268,268,268,268,268,268,268,268,268,268,268,268,268,268,268,268,268,
268,268,268,268,268,268,268,268,268,268,268,268,268,268,268,268,268,268,268,268,268,268,268,268,268,268,268,268,268,268,268,268,268,268,268,268,268,268,268,268,268,268,268,268,268,268,268,268,268,268,268,268,268,268,268,268,268,268,268,268,268,268,268,268,268,268,268,268,268,268,
268,268,268,268,268,268,268,268,268,268,268,268,268,268,268,268,268,268,268,268,268,268,268,268,268,268,268,268,268,268,268,268,268,268,268,268,268,268,268,268,268,268,268,268,268,268,268,268,268,268,268,268,268,268,268,268,268,268,268,268,268,268,268,268,268,268,268,268,268,268,
268,268,268,268,268,268,268,268,268,268,268,268,268,268,268,268,268,268,268,268,268,268,268,268,268,268,268,268,268,268,268,268,268,268,268,268,268,268,268,268,268,268,268,268,268,268,268,268,268,268,268,268,268,268,268,268,268,268,268,268,268,268,268,268,268,268,268,268,268,268,
268,268,268,268,268,268,268,268,268,268,268,268,268,268,268,268,268,268,268,268,268,268,268,268,268,268,268,268,268,268,268,268,268,268,268,268,268,268,268,268,268,268,268,268,268,268,268,268,268,268,268,268,268,268,268,268,268,268,268,268,268,268,268,268,268,268,268,268,268,268,
268,268,268,268,268,268,268,268,268,268,268,268,268,268,268,268,268,268,268,268,268,268,268,268,268,268,268,268,268,268,268,268,268,268,268,268,268,268,268,268,268,268,268,268,268,268,268,268,268,268,268,268,268,268,268,268,268,268,268,268,268,268,268,268,268,268,268,268,268,268,
268,268,268,268,268,268,268,268,268,268,268,268,268,268,268,268,268,268,268,268,268,268,268,268,268,268,268,268,268,268,268,268,268,268,268,268,268,268,268,268,268,268,268,268,268,268,268,268,268,268,268,268,268,268,268,268,268,268,268,268,268,268,268,268,268,268,268,268,268,268,
268,268,268,268,268,268,268,268,268,268,268,268,268,268,268,268,268,268,268,268,268,268,268,268,268,268,268,268,268,268,268,268,268,268,268,268,268,268,268,268,268,268,268,268,268,268,268,268,268,268,268,268,268,268,268,268,268,268,268,268,268,268,268,268,268,268,268,268,268,268,
268,268,268,268,268,268,268,268,268,268,268,268,268,268,268,268,268,268,268,268,268,268,268,268,268,268,268,268,268,268,268,268,268,268,268,268,268,268,268,268,268,268,268,268,268,268,268,268,268,268,268,268,268,268,268,268,268,268,268,268,268,268,268,268,268,268,268,268,268,268,
268,268,268,268,268,268,268,268,268,268,268,268,268,268,268,268,268,268,268,268,268,268,268,268,268,268,268,268,268,268,268,268,268,268,268,268,268,268,268,268,268,268,268,268,268,268,268,268,268,268,268,268,268,268,268,268,268,268,268,268,268,268,268,268,268,268,268,268,268,268,
268,268,268,268,268,268,268,268,268,268,268,268,268,268,268,268,268,268,268,268,268,268,268,268,268,268,268,268,268,268,268,268,268,268,268,268,268,268,268,268,268,268,268,268,268,268,268,268,268,268,268,268,268,268,268,268,268,268,268,268,268,268,268,268,268,268,268,268,268,268,
268,268,268,268,268,268,268,268,268,268,268,268,268,268,268,268,268,268,268,268,268,268,268,268,268,268,268,268,268,268,268,268,268,268,268,268,268,268,268,268,268,268,268,268,268,268,268,268,268,268,268,268,268,268,268,268,268,268,268,268,268,268,268,268,268,268,268,268,268,268,
268,268,268,268,268,268,268,268,268,268,268,268,268,268,268,268,268,268,268,268,268,268,268,268,268,268,268,268,268,268,268,268,268,268,268,268,268,268,268,268,268,268,268,268,268,268,268,268,268,268,268,268,268,268,268,268,268,268,268,268,268,268,268,268,268,268,268,268,268,268,
268,268,268,268,268,268,268,268,268,268,268,268,268,268,268,268,268,268,268,268,268,268,268,268,268,268,268,268,268,268,268,268,268,268,268,268,268,268,268,268,268,268,268,268,268,268,268,268,268,268,268,268,268,268,268,268,268,268,268,268,268,268,268,268,268,268,268,268,268,268,
268,268,268,268,268,268,268,268,268,268,268,268,268,268,268,268,268,268,268,268,268,268,268,268,268,268,268,268,268,268,268,268,268,268,268,268,268,268,268,268,268,268,268,268,268,268,268,268,268,268,268,268,268,268,268,268,268,268,268,268,268,268,268,268,268,268,268,268,268,268,
268,268,268,268,268,268,268,268,268,268,268,268,268,268,268,268,268,268,268,268,268,268,268,268,268,268,268,268,268,268,268,268,268,268,268,268,268,268,268,268,268,268,268,268,268,268,268,268,268,268,268,268,268,268,268,268,268,268,268,268,268,268,268,268,268,268,268,268,268,268,
268,268,268,268,268,268,268,268,268,268,268,268,268,268,268,268,268,268,268,268,268,268,268,268,268,268,268,268,268,268,268,268,268,268,268,268,268,268,268,268,268,268,268,268,268,268,268,268,268,268,268,268,268,268,268,268,268,268,268,268,268,268,268,268,268,268,268,268,268,268,
268,268,268,268,268,268,268,268,268,268,268,268,268,268,268,268,268,268,268,268,268,268,268,268,268,268,268,268,268,268,268,268,268,268,268,268,268,268,268,268,268,268,268,268,268,268,268,268,268,268,268,268,268,268,268,268,268,268,268,268,268,268,268,268,268,268,268,268,268,268,
268,268,268,268,268,268,268,268,268,268,268,268,268,268,268,268,268,268,268,268,268,268,268,268,268,268,268,268,268,268,268,268,268,268,268,268,268,268,268,268,268,268,268,268,268,268,268,268,268,268,268,268,268,268,268,268,268,268,268,268,268,268,268,268,268,268,268,268,268,268,
268,268,268,268,268,268,268,268,268,268,268,268,268,268,268,268,268,268,268,268,268,268,268,268,268,268,268,268,268,268,268,268,268,268,268,268,268,268,268,268,268,268,268,268,268,268,268,268,268,268,268,268,268,268,268,268,268,268,268,268,268,268,268,268,268,268,268,268,268,268,
268,268,268,268,268,268,268,268,268,268,268,268,268,268,268,268,268,268,268,268,268,268,268,268,268,268,268,268,268,268,268,268,268,268,268,268,268,268,268,268,268,268,268,268,268,268,268,268,268,268,268,268,268,268,268,268,268,268,268,268,268,268,268,268,268,268,268,268,268,268,
268,268,268,268,268,268,268,268,268,268,268,268,268,268,268,268,268,268,268,268,268,268,268,268,268,268,268,268,268,268,268,268,268,268,268,268,268,268,268,268,268,268,268,268,268,268,268,268,268,268,268,268,268,268,268,268,268,268,268,268,268,268,268,268,268,268,268,268,268,268,
268,268,268,268,268,268,268,268,268,268,268,268,268,268,268,268,268,268,268,268,268,268,268,268,268,268,268,268,268,268,268,268,268,268,268,268,268,268,268,268,268,268,268,268,268,268,268,268,268,268,268,268,268,268,268,268,268,268,268,268,268,268,268,268,268,268,268,268,268,268,
268,268,268,268,268,268,268,268,268,268,268,268,268,268,268,268,268,268,268,268,268,268,268,268,268,268,268,268,268,268,268,268,268,268,268,268,268,268,268,268,268,268,268,268,268,268,268,268,268,268,268,268,268,268,268,268,268,268,268,268,268,268,268,268,268,268,268,268,268,268,
268,268,268,268,268,268,268,268,268,268,268,268,268,268,268,268,268,268,268,268,268,268,268,268,268,268,268,268,268,268,268,268,268,268,268,268,268,268,268,268,268,268,268,268,268,268,268,268,268,268,268,268,268,268,268,268,268,268,268,268,268,268,268,268,268,268,268,268,268,268,
268,268,268,268,268,268,268,268,268,268,268,268,268,268,268,268,268,268,268,268,268,268,268,268,268,268,268,268,268,268,268,268,268,268,268,268,268,268,268,268,268,268,268,268,268,268,268,268,268,268,268,268,268,268,268,268,268,268,268,268,268,268,268,268,268,268,268,268,268,268,
268,268,268,268,268,268,268,268,268,268,268,268,268,268,268,268,268,268,268,268,268,268,268,268,268,268,268,268,268,268,268,268,268,268,268,268,268,268,268,268,268,268,268,268,268,268,268,268,268,268,268,268,268,268,268,268,268,268,268,268,268,268,268,268,268,268,268,268,268,268,
268,268,268,268,268,268,268,268,268,268,268,268,268,268,268,268,268,268,268,268,268,268,268,268,268,268,268,268,268,268,268,268,268,268,268,268,268,268,268,268,268,268,268,268,268,268,268,268,268,268,268,268,268,268,268,268,268,268,268,268,268,268,268,268,268,268,268,268,268,268,
268,268,268,268,268,268,268,268,268,268,268,268,268,268,268,268,268,268,268,268,268,268,268,268,268,268,268,268,268,268,268,268,268,268,268,268,268,268,268,268,268,268,268,268,268,268,268,268,268,268,268,268,268,268,268,268,268,268,268,268,268,268,268,268,268,268,268,268,268,268,
268,268,268,268,268,268,268,268,268,268,268,268,268,268,268,268,268,268,268,268,268,268,268,268,268,268,268,268,268,268,268,268,268,268,268,268,268,268,268,268,268,268,268,268,268,268,268,268,268,268,268,268,268,268,268,268,268,268,268,268,268,268,268,268,268,268,268,268,268,268,
268,268,268,268,268,268,268,268,268,268,268,268,268,268,268,268,268,268,268,268,268,268,268,268,268,268,268,268,268,268,268,268,268,268,268,268,268,268,268,268,268,268,268,268,268,268,268,268,268,268,268,268,268,268,268,268,268,268,268,268,268,268,268,268,268,268,268,268,268,268,
268,268,268,268,268,268,268,268,268,268,268,268,268,268,268,268,268,268,268,268,268,268,268,268,268,268,268,268,268,268,268,268,268,268,268,268,268,268,268,268,268,268,268,268,268,268,268,268,268,268,268,268,268,268,268,268,268,268,268,268,268,268,268,268,268,268,268,268,268,268,
268,268,268,268,268,268,268,268,268,268,268,268,268,268,268,268,268,268,268,268,268,268,268,268,268,268,268,268,268,268,268,268,268,268,268,268,268,268,268,268,268,268,268,268,268,268,268,268,268,268,268,268,268,268,268,268,268,268,268,268,268,268,268,268,268,268,268,268,268,268,
268,268,268,268,268,268,268,268,268,268,268,268,268,268,268,268,268,268,268,268,268,268,268,268,268,268,268,268,268,268,268,268,268,268,268,268,268,268,268,268,268,268,268,268,268,268,268,268,268,268,268,268,268,268,268,268,268,268,268,268,268,268,268,268,268,268,268,268,268,268
</data>
 </layer>
 <layer id="2" name="paths" width="70" height="60" offsetx="2.18182" offsety="0.969697">
  <data encoding="csv">
0,0,0,61,78,115,2,157,21,21,21,21,135,21,156,142,141,142,141,3,0,0,0,0,0,0,0,0,0,0,0,0,134,135,135,135,42,116,27,141,27,141,142,27,116,28,116,27,3,0,0,0,0,0,0,0,0,20,21,21,21,135,135,21,21,135,135,21,135,42,
0,0,0,77,78,118,135,21,135,135,21,135,21,135,21,135,21,21,21,42,142,28,3,0,0,0,0,0,0,0,0,0,153,46,24,21,135,21,135,21,135,21,135,21,135,135,135,135,136,0,0,0,0,0,0,0,0,118,135,21,21,21,21,21,21,21,135,21,21,21,
0,0,0,77,78,39,154,46,24,135,135,135,135,21,21,21,135,21,135,135,21,21,156,117,0,0,1,28,117,0,0,0,0,0,39,154,24,21,135,135,21,21,21,21,135,135,21,21,156,116,117,0,0,0,0,0,0,153,24,21,23,138,21,21,135,21,135,21,21,21,
0,0,0,61,78,79,0,0,153,24,135,135,21,135,21,21,21,21,21,21,21,21,135,42,27,2,157,21,156,2,117,0,0,0,0,0,118,21,135,21,21,21,21,21,21,135,135,21,135,135,136,0,0,0,0,0,0,0,134,135,136,39,24,135,21,135,135,135,21,135,
0,0,0,61,78,79,0,0,0,153,138,21,21,21,135,135,21,135,23,47,154,138,21,135,21,21,135,135,135,135,136,0,0,0,0,0,134,21,135,21,135,21,135,21,21,21,135,21,21,21,22,0,0,0,0,0,0,0,134,135,42,117,118,135,135,135,21,135,21,21,
0,0,0,77,78,79,0,0,0,0,118,21,23,40,40,47,40,46,41,0,0,39,40,40,47,40,154,46,138,21,136,0,0,0,0,0,118,21,21,135,21,21,135,21,21,21,135,135,21,135,136,0,0,0,0,0,0,0,39,24,21,22,39,24,135,21,21,135,135,21,
0,0,0,61,78,79,0,0,0,0,39,46,155,0,0,0,0,0,0,0,0,0,0,0,0,0,0,0,134,135,22,0,0,0,0,1,157,135,135,21,21,21,23,40,138,135,21,135,23,40,41,0,0,0,0,0,0,0,0,118,21,42,3,134,135,21,135,135,21,21,
0,0,0,77,78,79,0,0,0,0,0,0,0,0,0,0,0,0,0,58,85,85,84,59,59,60,0,0,153,46,155,0,0,0,1,157,135,21,135,21,23,154,155,0,153,47,138,135,22,0,0,0,0,0,0,0,0,0,58,39,138,135,42,43,135,21,135,21,21,135,
0,0,0,61,78,79,0,0,0,0,0,0,0,0,0,0,0,58,85,100,80,104,103,97,81,99,60,0,0,0,0,0,0,115,157,21,21,21,21,135,22,0,0,0,0,0,39,46,155,0,0,0,0,0,0,0,0,0,61,99,153,138,135,135,21,135,21,135,21,135,
0,0,0,61,78,79,0,0,0,0,0,0,0,0,0,0,58,100,80,104,98,0,0,0,96,81,79,0,0,0,0,0,1,157,21,135,135,135,21,137,41,0,0,0,0,0,0,0,0,0,0,0,0,0,0,0,58,85,100,78,99,153,138,135,21,21,21,135,21,135,
0,0,0,61,78,79,0,0,0,0,0,0,0,0,0,0,77,80,98,0,0,0,0,0,0,77,99,60,0,0,0,115,157,21,137,138,135,135,137,41,58,84,59,60,0,0,0,0,0,0,0,0,0,0,0,0,2030,2032,2033,2034,2037,79,153,138,21,135,21,137,46,138,
0,0,0,61,78,79,0,0,0,0,0,0,0,0,0,0,77,79,0,0,0,0,0,0,0,96,81,79,0,0,0,20,21,21,156,43,21,135,22,58,100,78,78,99,60,0,0,0,0,0,0,0,0,0,0,58,2040,2042,2043,2044,2047,79,0,153,24,21,135,42,3,20,
0,0,0,61,78,79,0,0,0,0,0,0,0,0,0,0,61,79,0,2030,2032,2033,2034,2037,0,0,77,79,0,0,0,134,135,21,21,135,137,47,41,100,80,103,104,81,79,0,0,0,0,0,0,0,0,0,0,77,2050,2052,2053,2054,2057,79,0,0,153,24,21,135,136,153,
0,0,0,77,78,79,0,0,0,0,0,2030,2032,2033,2034,2037,77,99,60,2040,2042,2043,2044,2047,0,0,77,79,0,0,0,118,21,21,21,23,41,58,2030,2032,2033,2034,2037,61,99,60,0,0,0,0,0,0,0,0,0,77,2060,2064,2065,2066,2067,98,58,60,0,118,135,21,136,0,
0,0,0,61,78,79,0,0,0,0,0,2040,2042,2043,2044,2047,96,81,79,2050,2052,2053,2054,2057,0,0,77,79,0,0,0,39,154,40,154,155,0,77,2040,2042,2043,2044,2047,77,78,79,0,0,0,0,0,0,0,0,0,96,2070,2074,2075,2076,2077,58,100,99,60,118,21,135,136,0,
0,0,0,77,78,79,0,0,0,0,0,2050,2052,2053,2054,2057,0,61,99,2060,2064,2065,2066,2067,58,85,100,79,0,0,0,0,0,0,0,0,0,77,2050,2052,2053,2054,2057,100,80,98,0,0,0,0,0,0,0,0,0,0,96,97,98,0,0,61,78,78,79,39,24,135,136,0,
0,0,0,77,78,99,60,0,0,0,0,2060,2064,2065,2066,2067,0,96,103,2070,2074,2075,2076,2077,100,80,103,98,0,0,0,0,0,0,0,0,0,77,2060,2064,2065,2066,2067,80,98,0,0,0,0,0,0,0,0,0,0,0,0,0,0,0,58,100,78,80,98,0,20,135,22,0,
0,0,0,61,78,78,99,60,0,0,0,2070,2074,2075,2076,2077,0,58,85,100,78,78,78,78,80,98,0,0,0,0,0,0,0,0,0,0,0,96,2070,2074,2075,2076,2077,98,0,0,0,0,0,0,0,0,0,0,0,0,58,59,85,59,100,78,78,79,0,0,118,135,136,0,
0,0,0,77,78,78,78,99,85,60,0,0,0,0,0,0,58,100,78,78,78,78,78,78,99,85,85,59,60,0,0,58,59,59,84,59,85,85,100,78,78,99,84,59,59,84,85,85,85,84,85,59,59,84,84,59,100,78,78,78,78,78,80,98,0,0,20,21,22,0,
1,116,117,96,97,104,81,78,78,99,85,85,59,60,58,59,100,78,78,78,78,78,78,78,78,78,78,78,99,85,59,100,78,78,78,78,78,78,78,78,78,78,78,78,78,78,78,78,78,78,78,78,78,78,78,78,78,78,78,78,78,80,98,0,0,0,134,137,41,0,
118,21,42,3,0,0,96,81,78,78,78,78,78,99,100,78,78,78,78,78,78,78,78,78,78,78,78,78,78,78,78,78,78,80,104,97,103,97,103,104,104,104,104,97,104,104,104,97,103,103,97,104,104,104,97,97,103,104,97,104,104,98,0,0,0,0,20,42,117,0,
157,21,135,22,0,0,0,96,97,97,103,81,78,78,78,78,80,103,103,104,104,104,97,97,97,104,103,103,81,78,78,78,80,98,0,0,0,0,0,0,0,0,0,0,0,0,0,0,0,0,0,0,0,0,0,0,0,0,0,0,0,0,0,0,1,117,118,135,136,0,
21,21,135,22,0,0,0,0,0,0,0,96,103,81,78,78,79,0,0,0,0,0,0,0,0,0,0,0,96,81,78,80,98,0,0,0,0,0,0,0,0,0,0,0,0,0,0,0,0,0,0,0,0,0,0,0,0,0,0,0,0,0,0,1,157,156,43,21,22,0,
135,21,21,42,116,28,28,116,117,0,0,0,0,77,78,80,98,0,0,0,0,0,0,0,0,0,0,0,0,61,78,79,0,0,0,0,0,0,0,0,0,0,0,0,0,0,0,0,0,0,0,0,0,0,0,0,0,0,0,0,0,0,0,118,21,21,135,21,136,0,
135,135,21,135,135,21,135,21,156,27,3,0,0,77,78,79,0,0,0,0,0,0,0,0,0,0,0,0,0,77,78,79,0,0,0,0,0,0,0,0,0,0,0,0,0,0,0,0,0,0,0,0,0,0,0,0,0,0,0,0,0,0,0,20,135,135,21,135,136,0,
21,21,21,21,135,135,135,21,21,135,22,0,0,77,78,79,0,0,0,0,0,0,0,0,0,0,0,0,0,61,78,79,0,0,0,0,0,0,0,0,0,0,0,0,0,0,0,0,0,0,0,0,0,0,0,0,0,0,0,0,0,0,115,43,21,135,21,21,22,0,
135,135,135,21,21,21,135,135,135,21,22,0,0,61,78,79,0,0,0,0,0,0,0,0,0,0,0,0,58,100,78,79,0,0,0,0,0,0,0,0,0,0,0,0,0,0,0,0,0,0,0,0,0,0,0,0,0,0,0,0,0,0,118,135,135,21,135,21,136,0,
135,135,21,135,21,21,21,21,21,135,136,0,0,77,78,99,60,0,0,0,0,0,0,0,0,0,0,0,61,78,78,79,0,0,0,0,0,115,142,2,142,117,0,0,0,0,0,0,0,0,0,0,0,0,0,0,0,0,0,0,0,1,157,135,135,135,135,21,22,0,
135,135,21,21,21,21,21,21,135,23,41,0,0,96,81,78,79,0,0,0,0,0,0,0,0,0,0,58,100,78,78,79,0,0,0,0,0,20,21,135,135,156,27,28,141,3,0,0,0,0,0,0,0,0,0,0,0,0,0,0,0,118,21,21,21,21,135,135,136,0,
135,135,137,138,135,135,21,21,23,155,0,0,0,0,61,78,99,60,0,0,0,0,0,0,0,0,0,61,78,78,80,98,0,0,0,0,115,43,21,135,135,21,135,135,21,22,0,0,0,0,0,0,0,0,0,0,0,0,115,28,141,43,135,135,135,21,21,135,136,0,
135,21,42,157,21,23,24,21,22,0,0,0,0,0,61,78,78,99,84,84,60,0,0,0,0,0,58,100,78,80,98,0,0,0,0,1,43,21,21,21,21,135,21,21,21,136,0,0,0,0,0,0,0,0,0,0,0,115,43,21,21,135,135,135,135,21,135,135,136,0,
135,135,21,21,137,155,153,47,41,0,0,0,0,0,96,97,81,78,78,78,99,85,59,84,84,85,100,78,80,98,0,0,0,0,1,43,21,135,21,21,135,135,135,21,21,156,27,3,0,0,0,0,0,0,0,0,0,134,21,21,135,135,135,135,135,21,135,135,22,0,
21,135,23,40,155,0,0,0,0,0,0,0,0,0,0,0,61,78,78,78,78,78,78,78,78,78,80,103,98,0,0,0,0,1,43,135,21,135,135,21,135,21,21,135,135,135,21,136,0,0,0,0,0,0,0,0,0,118,135,21,135,135,135,135,21,135,135,135,42,3,
135,135,136,0,0,58,84,84,60,0,0,0,0,0,0,0,61,78,78,78,78,80,103,103,103,103,98,0,0,0,0,1,142,157,21,135,21,21,135,21,135,21,135,135,21,21,23,155,0,0,0,0,0,0,0,0,0,20,21,21,135,21,21,135,21,135,135,21,135,136,
24,135,136,0,0,61,78,78,99,60,0,0,0,0,0,58,100,78,80,104,103,98,0,0,0,0,0,0,0,1,142,157,21,135,135,135,135,21,137,24,135,21,21,21,21,137,41,0,0,0,0,0,0,0,0,0,1,157,21,135,135,21,135,135,135,135,21,21,21,22,
153,154,155,0,0,2030,2032,2033,2034,2037,60,0,0,0,58,100,78,80,98,0,0,0,0,0,0,0,0,0,0,118,21,21,21,135,135,135,135,21,156,157,21,135,135,135,23,41,0,0,0,0,0,0,0,0,0,0,134,21,23,24,135,135,135,135,21,21,21,21,135,22,
0,0,0,0,0,2040,2042,2043,2044,2047,79,0,0,0,61,78,78,79,0,0,0,0,0,0,0,0,0,115,141,157,21,135,21,135,21,21,135,135,21,135,21,135,135,23,41,0,0,0,0,0,0,0,0,0,0,0,134,135,136,20,21,21,135,135,21,21,135,21,135,42,
0,0,0,0,0,2050,2052,2053,2054,2057,79,0,0,0,77,78,80,98,0,0,0,0,0,0,0,0,0,20,135,21,135,135,21,135,21,135,135,135,135,21,21,135,21,136,0,0,0,0,0,0,0,0,0,0,0,0,134,135,22,118,21,135,21,135,135,135,135,21,135,21,
0,0,0,0,0,2060,2064,2065,2066,2067,79,0,0,58,100,78,79,0,0,0,0,0,0,0,0,0,0,118,135,135,135,21,135,135,21,135,21,21,21,21,135,21,137,41,0,0,0,0,0,0,0,0,0,0,0,0,134,21,22,20,21,135,21,21,21,21,135,135,135,135,
0,0,0,0,0,2070,2074,2075,2076,2077,79,0,0,77,78,78,79,0,0,0,0,0,0,0,0,0,0,153,24,21,135,135,135,135,135,21,21,21,21,21,135,23,155,0,0,0,0,0,0,0,0,0,0,0,0,0,20,135,42,157,21,21,21,137,138,21,21,135,21,135,
0,0,0,0,0,96,104,104,97,97,98,0,0,61,78,80,98,0,0,0,0,0,0,0,0,0,0,0,118,21,21,21,135,135,21,135,21,21,21,135,135,136,0,0,0,0,0,0,0,2030,2032,2033,2034,2037,0,0,20,21,135,21,21,135,135,42,43,135,21,135,21,135,
85,84,84,84,59,84,84,59,59,84,59,84,84,100,78,79,0,0,0,0,0,0,0,0,0,0,0,0,134,21,21,135,21,21,21,21,135,135,135,21,137,155,0,0,0,0,0,0,0,2040,2042,2043,2044,2047,0,0,39,24,135,21,21,135,135,135,135,21,21,21,21,135,
78,78,78,78,78,78,78,78,78,78,78,78,78,78,78,79,0,0,0,0,0,0,0,0,0,0,0,0,134,21,135,21,135,21,21,21,21,135,135,137,155,0,0,0,0,0,0,0,0,2050,2052,2053,2054,2057,0,0,0,153,24,21,23,138,21,135,21,21,135,135,135,135,
103,97,104,97,97,104,97,104,103,97,97,103,81,78,78,79,0,0,0,0,0,0,0,0,0,0,0,0,153,24,135,21,135,21,135,135,21,135,137,155,0,0,0,0,0,0,0,0,0,2060,2064,2065,2066,2067,0,0,0,0,39,40,41,134,21,135,135,135,135,135,21,135,
0,0,115,27,2,142,3,0,0,0,0,0,77,78,78,79,0,0,0,0,0,0,0,0,0,0,0,0,0,153,138,21,21,21,135,135,21,135,136,0,0,0,0,0,0,0,0,0,0,2070,2074,2075,2076,2077,0,0,0,0,0,0,0,118,135,135,135,21,21,135,21,21,
141,142,43,135,135,21,42,142,2,116,3,0,77,78,80,98,0,0,0,0,0,0,0,0,0,0,0,0,0,0,20,21,135,135,21,21,135,23,155,0,0,0,0,0,0,0,0,58,59,84,59,84,59,85,84,59,85,60,0,0,0,118,135,135,135,21,21,21,135,135,
21,21,135,135,21,21,21,21,21,135,22,0,77,78,79,0,0,0,0,0,0,0,0,0,0,0,0,0,0,0,134,135,21,21,21,21,137,155,0,0,0,0,0,0,58,84,59,100,78,78,78,78,78,78,78,78,78,79,0,0,0,134,135,135,21,21,135,135,21,21,
135,21,135,21,21,21,135,21,135,23,41,0,77,78,79,0,0,0,0,0,0,0,58,85,84,85,60,0,0,0,134,21,135,135,21,21,136,0,0,0,0,0,58,85,100,78,78,80,103,104,104,104,104,103,103,97,104,98,0,0,0,153,138,21,21,21,135,21,21,21,
135,21,21,135,135,21,135,135,21,136,0,0,61,78,79,0,0,0,0,0,0,0,2030,2032,2033,2034,2037,0,0,0,153,47,154,40,138,137,155,0,0,0,0,58,100,78,80,97,103,98,0,0,0,0,0,0,0,0,0,0,0,0,0,0,39,47,138,21,21,21,21,135,
135,135,135,21,135,21,21,23,154,41,0,58,100,78,79,0,0,0,0,0,0,0,2040,2042,2043,2044,2047,60,0,0,0,0,0,0,118,136,0,0,0,0,0,100,78,80,98,0,0,0,0,0,0,0,0,0,0,0,0,0,115,27,28,117,115,142,43,21,135,21,135,21,
135,21,137,24,135,135,21,22,0,0,0,77,78,80,98,0,0,0,0,0,0,0,2050,2052,2053,2054,2057,79,0,0,0,0,0,0,153,155,0,0,0,0,100,80,103,98,0,0,0,0,0,0,0,0,0,0,0,0,0,1,43,21,21,156,43,21,21,135,135,21,135,21,
135,135,156,43,135,135,21,22,58,59,85,100,78,79,0,0,0,0,0,0,0,0,2060,2064,2065,2066,2067,79,0,0,0,0,0,0,0,0,0,78,78,78,78,79,0,0,0,0,0,0,0,0,0,0,0,0,0,0,1,43,135,135,21,135,135,21,21,135,135,135,135,135,
135,21,21,21,137,46,154,41,61,78,78,78,78,79,0,0,0,0,0,0,0,0,2070,2074,2075,2076,2077,98,0,0,0,0,0,0,58,84,100,78,80,97,97,98,0,0,0,0,0,0,0,0,0,0,0,0,1,2,43,135,135,21,21,135,135,21,21,21,21,135,21,135,
21,21,135,21,22,0,0,0,77,78,78,78,78,99,84,59,84,84,84,85,59,59,59,100,78,78,99,85,59,59,59,85,59,59,100,78,80,103,98,0,0,0,0,0,0,0,0,0,0,0,0,0,0,115,157,135,21,135,21,135,135,135,21,21,135,21,135,21,135,21,
21,21,135,135,136,0,0,0,61,78,78,78,78,78,78,78,78,78,78,78,78,78,78,78,78,78,78,78,78,78,78,78,78,78,80,97,98,0,0,0,0,0,0,0,0,0,0,0,0,0,0,0,115,157,21,135,135,135,21,21,135,135,21,135,21,21,135,21,135,21,
135,135,135,135,136,0,0,0,77,78,80,103,104,103,103,97,104,103,103,103,97,103,103,97,103,104,104,97,104,104,104,104,97,97,98,0,0,0,0,0,0,0,0,0,0,0,0,0,0,0,115,28,157,21,135,135,21,21,135,21,21,21,21,21,21,135,135,21,135,135,
21,21,21,137,155,0,0,0,77,78,79,0,0,0,0,0,0,0,0,0,0,0,0,0,0,0,0,0,0,0,0,0,0,0,0,0,0,0,0,0,0,0,0,0,0,0,0,115,141,2,43,21,135,21,21,135,21,135,21,135,21,135,135,21,21,135,135,21,21,135,
135,21,135,42,116,141,117,0,61,78,79,0,0,0,0,0,0,0,0,0,0,0,0,0,0,0,0,0,0,0,0,0,0,0,0,0,0,0,0,0,0,0,0,0,115,28,116,43,21,21,135,135,21,135,135,21,21,135,21,135,135,135,135,21,135,135,135,135,21,135,
21,135,135,21,135,135,22,0,77,78,79,0,0,0,0,0,0,0,0,0,0,0,0,0,0,0,0,0,0,0,0,0,0,0,0,0,0,0,0,0,0,0,1,2,157,135,135,21,21,135,21,21,21,21,135,21,135,21,21,135,21,21,135,135,135,21,135,135,21,135,
135,21,21,21,135,21,22,0,77,78,79,0,0,0,0,0,0,0,0,0,0,0,0,0,0,0,0,0,0,0,0,0,0,0,0,0,0,0,0,0,0,0,20,135,135,21,135,135,21,135,21,135,21,21,135,135,21,21,21,21,135,135,21,135,21,21,135,21,21,21
</data>
 </layer>
 <objectgroup id="10" name="Object Layer 1">
  <object id="62" type="door" x="353.333" y="261.333">
   <point/>
  </object>
  <object id="63" type="NPC_Spawn" x="326.333" y="278.333">
   <properties>
    <property name="wander" type="bool" value="false"/>
   </properties>
   <point/>
  </object>
  <object id="64" type="collision" x="182.333" y="210.667" width="72.3333" height="75.3333"/>
  <object id="65" type="collision" x="310" y="193.333" width="72.6667" height="75.3333"/>
  <object id="66" type="collision" x="614" y="210" width="74" height="75.6667"/>
  <object id="67" type="collision" x="902.667" y="161" width="72.6667" height="76"/>
  <object id="68" type="collision" x="789.667" y="640.667" width="73.6667" height="76.6667"/>
  <object id="69" type="collision" x="358" y="769" width="73.3333" height="78.3333"/>
  <object id="70" type="collision" x="85.6667" y="561.667" width="72.3333" height="77"/>
  <object id="73" type="collision" x="7.33333" y="6" width="40.6667" height="648.667"/>
  <object id="74" name="c" type="collision" x="99.3333" y="-3.33333" width="1173.39" height="76.0606"/>
  <object id="75" type="collision" x="1061" y="-11" width="62" height="979"/>
  <object id="76" type="collision" x="174" y="895" width="996" height="67"/>
  <object id="77" type="collision" x="-30" y="892" width="160" height="80"/>
  <object id="78" type="collision" x="-5" y="723" width="54" height="275"/>
  <object id="81" type="Player_Spawn" x="830.5" y="744.5">
   <point/>
  </object>
  <object id="85" type="wild_rune" x="359.75" y="424.375">
   <properties>
    <property name="symbol" value="fire"/>
   </properties>
   <point/>
  </object>
  <object id="86" type="enemy_spawner" x="113" y="99.25">
   <properties>
    <property name="enemy_type" value="skeleton"/>
    <property name="spawn_chances" value="100"/>
   </properties>
   <point/>
  </object>
  <object id="88" name="tra" type="zone_transition" x="130.182" y="919.818" width="44" height="51.0909">
   <properties>
    <property name="target_area" value="forest"/>
    <property name="target_entry" value="forest_entry1"/>
   </properties>
  </object>
  <object id="91" name="wooden_spear" type="ground_item" x="902.667" y="720">
   <properties>
    <property name="item_id" value="wooden_spear"/>
   </properties>
   <point/>
  </object>
  <object id="92" type="entry_point" x="154" y="903">
   <properties>
    <property name="name" value="from_forest1"/>
   </properties>
   <point/>
  </object>
 </objectgroup>
 <layer id="11" name="Trees" width="70" height="60">
  <data encoding="csv">
457,458,459,460,0,0,457,458,459,460,457,458,459,460,457,458,459,460,457,458,459,460,457,458,459,460,457,458,459,460,457,458,459,460,457,458,459,460,457,458,459,460,457,458,459,460,457,458,459,460,457,458,459,460,457,458,459,460,457,458,459,460,457,458,459,460,457,458,459,460,
508,509,510,511,0,0,508,509,510,511,508,509,510,511,508,509,510,511,508,509,510,511,508,509,510,511,508,509,510,511,508,509,510,511,508,509,510,511,508,509,510,511,508,509,510,511,508,509,510,511,508,509,510,511,508,509,510,511,508,509,510,511,508,509,510,511,508,509,510,511,
559,560,561,562,0,0,559,560,561,562,559,560,561,562,559,560,561,562,559,560,561,562,559,560,561,562,559,560,561,562,559,560,561,562,559,560,561,562,559,560,561,562,559,560,561,562,559,560,561,562,559,560,561,562,559,560,561,562,559,560,561,562,559,560,561,562,559,560,561,562,
610,611,612,613,0,0,610,611,612,613,610,611,612,613,610,611,612,613,610,611,612,613,610,611,612,613,610,611,612,613,610,611,612,613,610,611,612,613,610,611,612,613,610,611,612,613,610,611,612,613,610,611,612,613,610,611,612,613,610,611,612,613,610,611,612,613,610,611,612,613,
661,662,663,664,0,0,661,662,663,664,661,662,663,664,661,662,663,664,661,662,663,664,661,662,663,664,661,662,663,664,661,662,663,664,661,662,663,664,661,662,663,664,661,662,663,664,661,662,663,664,661,662,663,664,661,662,663,664,661,662,663,664,661,662,663,664,661,662,663,664,
0,0,0,0,0,0,0,0,0,0,0,0,0,0,0,0,0,0,0,0,0,0,0,0,0,0,0,0,0,0,0,0,0,0,0,0,0,0,0,0,0,0,0,0,0,0,0,0,0,0,0,0,0,0,0,0,0,0,0,0,0,0,0,0,0,0,0,0,0,0,
457,458,459,460,0,0,0,0,0,0,0,0,0,0,0,0,0,0,0,0,0,0,0,0,0,0,0,0,0,0,0,0,0,0,0,0,0,0,0,0,0,0,0,0,0,0,0,0,0,0,0,0,0,0,0,0,0,0,0,0,0,0,0,0,0,0,0,0,0,0,
508,509,510,511,0,0,922,923,924,0,0,0,0,0,0,0,0,0,0,0,0,0,0,0,0,0,0,0,0,0,0,0,0,0,0,0,0,0,0,0,0,0,0,0,0,0,0,0,0,0,0,0,0,0,0,0,0,0,0,0,0,0,0,0,0,0,0,0,0,0,
559,560,561,562,0,0,973,974,975,0,0,0,0,0,0,0,0,0,0,0,0,0,0,0,0,0,0,0,0,0,0,0,0,0,0,0,0,0,0,0,0,0,0,0,0,0,0,0,0,0,0,0,0,0,0,0,0,0,0,0,0,0,0,0,0,0,0,0,0,0,
610,611,612,613,0,0,1024,1025,1026,0,0,0,0,0,0,0,0,0,0,0,0,0,0,0,0,0,0,0,0,0,0,0,0,0,0,0,0,0,0,0,0,0,0,0,0,0,0,0,0,0,0,0,0,0,0,0,0,0,0,0,0,0,0,0,0,0,0,0,0,0,
661,662,663,664,0,0,0,0,0,0,0,0,0,0,0,0,0,0,0,0,0,0,0,0,0,0,0,0,0,0,0,0,0,0,0,0,0,0,0,0,0,0,0,0,0,0,0,0,0,0,0,0,0,0,0,0,0,0,0,0,0,0,0,0,0,0,0,0,0,0,
457,458,459,460,0,0,0,0,0,0,0,0,0,0,0,0,0,0,0,0,0,0,0,0,0,0,0,0,0,0,0,0,0,0,0,0,0,0,0,0,0,0,0,0,0,0,0,0,0,0,0,0,0,0,0,0,0,0,0,0,0,0,0,0,0,0,0,0,0,0,
508,509,510,511,0,0,0,0,0,0,0,0,0,0,0,0,0,0,0,0,0,0,0,0,0,0,0,0,0,0,0,0,0,0,0,0,0,0,0,0,0,0,0,0,0,0,0,0,0,0,0,0,0,0,0,0,0,0,0,0,0,0,0,0,0,0,0,0,0,0,
559,560,561,562,0,0,0,0,0,0,0,0,0,0,0,0,0,0,0,0,0,0,0,0,0,0,0,0,0,0,0,0,0,0,0,0,0,0,0,0,0,0,0,0,0,0,0,0,0,0,0,0,0,0,0,0,0,0,0,0,0,0,0,0,0,0,0,0,0,0,
610,611,612,613,0,0,0,0,0,0,0,0,0,0,0,0,0,0,0,0,0,0,0,0,0,0,0,0,0,0,0,0,0,0,0,0,0,0,0,0,0,0,0,0,0,0,0,0,0,0,0,0,0,0,0,0,0,0,0,0,0,0,0,0,0,0,0,0,0,0,
661,662,663,664,0,0,0,0,0,0,0,0,0,0,0,0,0,0,0,0,0,0,0,0,0,0,0,0,0,0,0,0,0,0,0,0,0,0,0,0,0,0,0,0,0,0,0,0,0,0,0,0,0,0,0,0,0,0,0,0,0,0,0,0,0,0,0,0,0,0,
457,458,459,460,0,0,0,0,0,0,0,0,0,0,0,0,0,0,0,0,0,0,0,0,0,0,0,0,0,0,0,0,0,0,0,0,0,0,0,0,0,0,0,0,0,0,0,0,0,0,0,0,0,0,0,0,0,0,0,0,0,0,0,0,0,0,0,0,0,0,
508,509,510,511,0,0,0,0,0,0,0,0,0,0,0,0,0,0,0,0,0,0,0,0,0,0,0,0,0,0,0,0,0,0,0,0,0,0,0,0,0,0,0,0,0,0,0,0,0,0,0,0,0,0,0,0,0,0,0,0,0,0,0,0,0,0,0,0,0,0,
559,560,561,562,0,0,0,0,0,0,0,0,0,0,0,0,0,0,0,0,0,0,0,0,0,0,0,0,0,0,0,0,0,0,0,0,0,0,0,0,0,0,0,0,0,0,0,0,0,0,0,0,0,0,0,0,0,0,0,0,0,0,0,0,0,0,0,0,0,0,
610,611,612,613,0,0,0,0,0,0,0,0,0,0,0,0,0,0,0,0,0,0,0,0,0,0,0,0,0,0,0,0,0,0,0,0,0,0,0,0,0,0,0,0,0,0,0,0,0,0,0,0,0,0,0,0,0,0,0,0,0,0,0,0,0,0,0,0,0,0,
661,662,663,664,0,0,0,0,0,0,0,0,0,0,0,0,0,0,0,0,0,0,0,0,0,0,0,0,0,0,0,0,0,0,0,0,0,0,0,0,0,0,0,0,0,0,0,0,0,0,0,0,0,0,0,0,0,0,0,0,0,0,0,0,0,0,0,0,0,0,
457,458,459,460,0,0,0,0,0,0,0,0,0,0,0,0,0,0,0,0,0,0,0,0,0,0,0,0,0,0,0,0,0,0,0,0,0,0,0,0,0,0,0,0,0,0,0,0,0,0,0,0,0,0,0,0,0,0,0,0,0,0,0,0,0,0,0,0,0,0,
508,509,510,511,0,0,0,0,0,0,0,0,0,0,0,0,0,0,0,0,0,0,0,0,0,0,0,0,0,0,0,0,0,0,0,0,0,0,0,0,0,0,0,0,0,0,0,0,0,0,0,0,0,0,0,0,0,0,0,0,0,0,0,0,0,0,0,0,0,0,
559,560,561,562,0,0,0,0,0,0,0,0,0,0,0,0,0,0,0,0,0,0,0,0,0,0,0,0,0,0,0,0,0,0,0,0,0,0,0,0,0,0,0,0,0,0,0,0,0,0,0,0,0,0,0,0,0,0,0,0,0,0,0,0,0,0,0,0,0,0,
610,611,612,613,0,0,0,0,0,0,0,0,0,0,0,0,0,0,0,0,0,0,0,0,0,0,0,0,0,0,0,0,0,0,0,0,0,0,0,0,0,0,0,0,0,0,0,0,0,0,0,0,0,0,0,0,0,0,0,0,0,0,0,0,0,0,0,0,0,0,
661,662,663,664,0,0,0,0,0,0,0,0,0,0,0,0,0,0,0,0,0,922,923,924,0,0,0,0,0,0,0,0,0,0,0,0,0,0,0,0,0,0,0,0,0,0,0,0,0,0,0,0,0,0,0,0,0,0,0,0,0,0,0,0,0,0,0,0,0,0,
457,458,459,460,0,0,0,0,0,0,0,0,0,0,0,0,0,0,0,0,0,973,974,975,0,0,0,0,0,0,0,0,0,0,0,0,0,0,0,0,0,0,0,0,0,0,0,0,0,0,0,0,0,0,0,0,0,0,0,0,0,0,0,0,0,0,0,0,0,0,
508,509,510,511,0,0,0,0,0,0,0,0,0,0,0,0,0,0,0,0,0,1024,1025,1026,0,0,0,0,0,0,0,0,0,0,0,0,0,0,0,0,0,0,0,0,0,0,0,0,0,0,0,0,0,0,0,0,0,0,0,0,0,0,0,0,0,0,0,0,0,0,
559,560,561,562,0,0,0,0,0,0,0,0,0,0,0,0,0,0,0,0,0,0,0,0,0,0,0,0,0,0,0,0,0,0,0,0,0,0,0,0,0,0,0,0,0,0,0,0,0,0,0,0,0,0,0,0,0,0,0,0,0,0,0,0,0,0,0,0,0,0,
610,611,612,613,0,0,0,0,922,923,924,0,0,0,0,0,0,0,0,0,0,0,0,0,0,0,0,0,0,0,0,0,0,0,0,0,0,0,0,0,0,0,0,0,0,0,0,0,0,0,0,0,0,0,0,0,0,0,0,0,0,0,0,0,0,0,0,0,0,0,
661,662,663,664,0,0,0,0,973,974,975,0,0,0,0,0,0,0,0,0,0,0,0,0,0,0,0,0,0,0,0,0,0,0,0,0,0,0,0,0,0,0,0,0,0,0,0,0,0,0,0,0,0,0,0,0,0,0,0,0,0,0,0,0,0,0,0,0,0,0,
457,458,459,460,0,0,0,0,1024,1025,1026,0,0,0,0,0,0,0,0,0,0,0,0,0,0,0,0,0,0,0,0,0,0,0,0,0,0,0,0,0,0,0,0,0,0,0,0,0,0,0,0,0,0,0,0,0,0,0,0,0,0,0,0,0,0,0,0,0,0,0,
508,509,510,511,0,0,0,0,0,0,0,0,0,0,0,0,0,0,0,0,0,0,0,0,0,0,0,0,0,0,0,0,0,0,0,0,0,0,0,0,0,0,0,0,0,0,0,0,0,0,0,0,0,0,0,0,0,0,0,0,0,0,0,0,0,0,0,0,0,0,
559,560,561,562,0,0,0,0,0,0,0,0,0,0,0,0,0,0,0,0,0,0,0,0,0,0,0,0,0,0,0,0,0,0,0,0,0,0,0,0,0,0,0,0,0,0,0,0,0,0,0,0,0,0,0,0,0,0,0,0,0,0,0,0,0,0,0,0,0,0,
610,611,612,613,0,0,0,0,0,0,0,0,0,0,0,0,0,0,0,0,0,0,0,0,0,0,0,0,0,0,0,0,0,0,0,0,0,0,0,0,0,0,0,0,0,0,0,0,0,0,0,0,0,0,0,0,0,0,0,0,0,0,0,0,0,0,0,0,0,0,
661,662,663,664,0,0,0,0,0,0,0,0,0,0,0,0,0,0,0,0,0,0,0,0,0,0,0,0,0,0,0,0,0,0,0,0,0,0,0,0,0,0,0,0,0,0,0,0,0,0,0,0,0,0,0,0,0,0,0,0,0,0,0,0,0,0,0,0,0,0,
457,458,459,460,0,0,0,0,0,0,0,0,0,0,0,0,0,0,0,0,0,0,0,0,0,0,0,0,0,0,0,0,0,0,0,0,0,0,0,0,0,0,0,0,0,0,0,0,0,0,0,0,0,0,0,0,0,0,0,0,0,0,0,0,0,0,0,0,0,0,
508,509,510,511,0,0,0,0,0,0,0,0,0,0,0,0,0,0,0,0,0,0,0,0,0,0,0,0,0,0,0,0,0,0,0,0,0,0,0,0,0,0,0,0,0,0,0,0,0,0,0,0,0,0,0,0,0,0,0,0,0,0,0,0,0,0,0,0,0,0,
559,560,561,562,0,0,0,0,0,0,0,0,0,0,0,0,0,0,0,0,0,0,0,0,0,0,0,0,0,0,0,0,0,0,0,0,0,0,0,0,0,0,0,0,0,0,0,0,0,0,0,0,0,0,0,0,0,0,0,0,0,0,0,0,0,0,0,0,0,0,
610,611,612,613,0,0,0,0,0,0,0,0,0,0,0,0,0,0,0,0,0,0,0,0,0,0,0,0,0,0,0,0,0,0,0,0,0,0,0,0,0,0,0,0,0,0,0,0,0,0,0,0,0,0,0,0,0,0,0,0,0,0,0,0,0,0,0,0,0,0,
661,662,663,664,0,0,0,0,0,0,0,0,0,0,0,0,0,0,0,0,0,0,0,0,0,0,0,0,0,0,0,0,0,0,0,0,0,0,0,0,0,0,0,0,0,0,0,0,0,0,0,0,0,0,0,0,0,0,0,0,0,0,0,0,0,0,0,0,0,0,
0,0,0,0,0,0,0,0,0,0,0,0,0,0,0,0,0,0,0,0,0,0,0,0,0,0,0,0,0,0,0,0,0,0,0,0,0,0,0,0,0,0,0,0,0,0,0,0,0,0,0,0,0,0,0,0,0,0,0,0,0,0,0,0,0,0,0,0,0,0,
0,0,0,0,0,0,0,0,0,0,0,0,0,0,0,0,0,0,0,0,0,0,0,0,0,0,0,0,0,0,0,0,0,0,0,0,0,0,0,0,0,0,0,0,0,0,0,0,0,0,0,0,0,0,0,0,0,0,0,0,0,0,0,0,0,0,0,0,0,0,
0,0,0,0,0,0,0,0,0,0,0,0,0,0,0,0,0,0,0,0,0,0,0,0,0,0,0,0,0,0,0,0,0,0,0,0,0,0,0,0,0,0,0,0,0,0,0,0,0,0,0,0,0,0,0,0,0,0,0,0,0,0,0,0,0,0,0,0,0,0,
0,0,0,0,0,0,0,0,0,0,0,0,0,0,0,0,0,0,0,0,0,0,0,0,0,0,0,0,0,0,0,0,0,0,0,0,0,0,0,0,0,0,0,0,0,0,0,0,0,0,0,0,0,0,0,0,0,0,0,0,0,0,0,0,0,0,0,0,0,0,
457,458,459,460,0,0,0,0,0,0,0,0,0,0,0,0,0,0,0,0,0,0,0,0,0,0,0,0,0,0,0,0,0,0,0,0,0,0,0,0,0,0,0,0,0,0,0,0,0,0,0,0,0,0,0,0,0,0,0,0,0,0,0,0,0,0,0,0,0,0,
508,509,510,511,0,0,0,0,0,0,0,0,0,0,0,0,0,0,0,0,0,0,0,0,0,0,0,0,0,0,0,0,0,0,0,0,0,0,0,0,0,0,0,0,0,0,0,0,0,0,0,0,0,0,0,0,0,0,0,0,0,0,0,0,0,0,0,0,0,0,
559,560,561,562,0,0,0,0,0,0,0,0,0,0,0,0,0,0,0,0,0,0,0,0,0,0,0,0,0,0,0,0,0,0,0,0,0,0,0,0,0,0,0,0,0,0,0,0,0,0,0,0,0,0,0,0,0,0,0,0,0,0,0,0,0,0,0,0,0,0,
610,611,612,613,0,0,0,0,0,0,0,0,0,0,0,0,0,0,0,0,0,0,0,0,0,0,0,0,0,0,0,0,0,0,0,0,0,0,0,0,0,0,0,0,0,0,0,0,0,0,0,0,0,0,0,0,0,0,0,0,0,0,0,0,0,0,0,0,0,0,
661,662,663,664,0,0,0,0,0,0,0,0,0,0,0,0,0,0,0,0,0,0,0,0,0,0,0,0,0,0,0,0,0,0,0,0,0,0,0,0,0,0,0,0,0,0,0,0,0,0,0,0,0,0,0,0,0,0,0,0,0,0,0,0,0,0,0,0,0,0,
457,458,459,460,0,0,0,0,0,0,0,0,0,0,0,0,0,0,0,0,0,0,0,0,0,0,0,0,0,0,0,0,0,0,0,0,0,0,0,0,0,0,0,0,0,0,0,0,0,0,0,0,0,0,0,0,0,0,0,0,0,0,0,0,0,0,0,0,0,0,
508,509,510,511,0,0,0,0,0,0,0,0,0,0,0,0,0,0,0,0,0,0,0,0,0,0,0,0,0,0,0,0,0,0,0,0,0,0,0,0,0,0,0,0,0,0,0,0,0,0,0,0,0,0,0,0,0,0,0,0,0,0,0,0,0,0,0,0,0,0,
559,560,561,562,0,0,0,0,0,0,0,0,0,0,0,0,0,0,0,0,0,0,0,0,0,0,0,0,0,0,0,0,0,0,0,0,0,0,0,0,0,0,0,0,0,0,0,0,0,0,0,0,0,0,0,0,0,0,0,0,0,0,0,0,0,0,0,0,0,0,
610,611,612,613,0,0,0,0,0,0,0,0,0,0,0,0,0,0,0,0,0,0,0,0,0,0,0,0,0,0,0,0,0,0,0,0,0,0,0,0,0,0,0,0,0,0,0,0,0,0,0,0,0,0,0,0,0,0,0,0,0,0,0,0,0,0,0,0,0,0,
661,662,663,664,0,0,0,0,0,0,0,0,0,0,0,0,0,0,0,0,0,0,0,0,0,0,0,0,0,0,0,0,0,0,0,0,0,0,0,0,0,0,0,0,0,0,0,0,0,0,0,0,0,0,0,0,0,0,0,0,0,0,0,0,0,0,0,0,0,0,
460,457,458,459,460,457,458,459,460,0,457,458,459,460,457,458,459,460,457,458,459,460,457,458,459,460,457,458,459,460,457,458,459,460,457,458,459,460,457,458,459,460,457,458,459,460,457,458,459,460,457,458,459,460,457,458,459,460,457,458,459,460,457,458,459,460,457,458,459,460,
511,508,509,510,511,508,509,510,511,0,508,509,510,511,508,509,510,511,508,509,510,511,508,509,510,511,508,509,510,511,508,509,510,511,508,509,510,511,508,509,510,511,508,509,510,511,508,509,510,511,508,509,510,511,508,509,510,511,508,509,510,511,508,509,510,511,508,509,510,511,
562,559,560,561,562,559,560,561,562,0,559,560,561,562,559,560,561,562,559,560,561,562,559,560,561,562,559,560,561,562,559,560,561,562,559,560,561,562,559,560,561,562,559,560,561,562,559,560,561,562,559,560,561,562,559,560,561,562,559,560,561,562,559,560,561,562,559,560,561,562,
613,610,611,612,613,610,611,612,613,0,610,611,612,613,610,611,612,613,610,611,612,613,610,611,612,613,610,611,612,613,610,611,612,613,610,611,612,613,610,611,612,613,610,611,612,613,610,611,612,613,610,611,612,613,610,611,612,613,610,611,612,613,610,611,612,613,610,611,612,613,
664,661,662,663,664,661,662,663,664,0,661,662,663,664,661,662,663,664,661,662,663,664,661,662,663,664,661,662,663,664,661,662,663,664,661,662,663,664,661,662,663,664,661,662,663,664,661,662,663,664,661,662,663,664,661,662,663,664,661,662,663,664,661,662,663,664,661,662,663,664
</data>
 </layer>
</map>
